X:9017
T:La Patada
C:Tradicional
S:Música Tradicional Asturiana, (C) Tello & Tito. Asturies, 2001.
S:http://pagina.de/MusTradAst <telloytito@asturies.org>
A:Asturies
Z:Danzas y Bailes I
M:3/8
L:1/8
Q:3/8=66
K:G
|: DDE|FGF|(3E/F/E/ D2|z3|DEF|Adc|(3A/B/A/ G2|z3 :|
Q:3/8=88
|G2 G|GAB|ddd|ddd|c/d/c/B/ A-|A3|
|d2 d|{e}dcB|ABc|cBc|(3A/B/A/G2-|G3-|G3-|G z2|
|DGF|GBc|d2 d-|d3|c_BA|_Bcd|c3/2B/A-|A3|
|Add|dcd|c_B/A/G-|G3|FGA|_Bdc|A_B/A/G-|G3-|G3-|G z2|
|G2 G|GAB|ddd|ddd|c/d/c/B/ A-|A3|d2 d|dcB|ABc|cBc|G3-|G3-|G3-|G z2|


